svgs/light/basketball-hoop.svg

<svg xmlns="http://www.w3.org/2000/svg" viewBox="0 0 640 512"><!--! Font Awesome Pro 6.0.0-alpha3 by @fontawesome - https://fontawesome.com License - https://fontawesome.com/license (Commercial License) --><path d="M631.5 175.8C572.6 71.38 455.4 0 320 0S67.37 71.38 8.504 175.8C2.955 185.7 0 196.8 0 208.1v118c0 25.43 15.05 48.44 38.35 58.63l67.03 29.32c11.29 4.939 23.7-4.207 22.31-16.46c-.6406-5.674-4.256-10.58-9.486-12.86l-67.03-29.32C39.53 350.4 32 338.9 32 326.1V208.1c0-5.664 1.189-10.8 3.439-14.86C90.61 93.79 199.6 32 320 32s229.4 61.79 284.6 161.2C606.8 197.3 608 202.4 608 208.1v118c0 12.71-7.525 24.22-19.17 29.32l-67.03 29.32c-5.23 2.287-8.846 7.189-9.486 12.86c-1.383 12.25 11.02 21.39 22.31 16.46l67.03-29.32C624.9 374.6 640 351.6 640 326.1V208.1C640 196.8 637 185.7 631.5 175.8zM464 208C472.8 208 480 200.8 480 192V160c0-17.67-14.33-32-32-32H192C174.3 128 160 142.3 160 160v32c0 8.836 7.164 16 16 16C184.8 208 192 200.8 192 192V160h256v32C448 200.8 455.2 208 464 208zM528 256c0-8.836-7.162-16-16-16H128C119.2 240 112 247.2 112 256S119.2 272 128 272h18.6l25.49 225.8c.6562 5.875 4.531 10.86 10 13.04c1.9 .7441 3.914 1.121 5.902 1.121c3.732 0 7.413-1.301 10.35-3.809l55.11-46.8l56.29 46.91C312.7 510.8 316.4 512 320 512s7.281-1.234 10.25-3.703l56.29-46.91l55.11 46.8C444.6 510.7 448.3 512 452 512c1.999 0 4-.375 5.906-1.125c5.469-2.172 9.344-7.161 10-13.04L493.4 272H512C520.8 272 528 264.8 528 256zM439.5 464.4l-32.22-27.36c-5.971-5.07-13.34-7.607-20.71-7.607c-7.273 0-14.55 2.469-20.49 7.416L320 475.2l-46.06-38.38c-5.938-4.947-13.21-7.416-20.49-7.416c-7.371 0-14.74 2.539-20.71 7.607l-32.22 27.36L178.8 272h282.4L439.5 464.4zM240 344c13.26 0 24-10.75 24-24c0-13.26-10.74-24-24-24c-13.25 0-24 10.74-24 24C216 333.3 226.7 344 240 344zM256 384c0 13.25 10.75 24 24 24c13.26 0 24-10.75 24-24c0-13.26-10.74-24-24-24C266.7 360 256 370.7 256 384zM336 384c0 13.25 10.75 24 24 24c13.26 0 24-10.75 24-24c0-13.26-10.74-24-24-24C346.7 360 336 370.7 336 384zM400 344c13.26 0 24-10.75 24-24c0-13.26-10.74-24-24-24c-13.25 0-24 10.74-24 24C376 333.3 386.7 344 400 344zM320 344c13.26 0 24-10.75 24-24c0-13.26-10.74-24-24-24c-13.25 0-24 10.74-24 24C296 333.3 306.7 344 320 344z"/></svg>

<svg xmlns="http://www.w3.org/2000/svg" viewBox="0 0 640 512"><!-- Font Awesome Pro 6.0.0-alpha2 by @fontawesome - https://fontawesome.com License - https://fontawesome.com/license (Commercial License) --><path d="M631.496 175.848C572.635 71.381 455.379 0 320 0S67.365 71.381 8.504 175.848C2.955 185.693 0 196.799 0 208.102V326.143C0 351.57 15.053 374.586 38.348 384.777L105.375 414.102C116.668 419.041 129.07 409.895 127.688 397.646C127.047 391.973 123.432 387.07 118.201 384.783L51.174 355.459C39.527 350.363 32 338.855 32 326.143V208.102C32 202.437 33.189 197.301 35.439 193.244C90.605 93.785 199.643 32 320 32S549.395 93.785 604.561 193.244C606.811 197.301 608 202.438 608 208.102V326.143C608 338.855 600.475 350.363 588.826 355.459L521.799 384.783C516.568 387.07 512.953 391.973 512.312 397.646C510.93 409.895 523.334 419.041 534.625 414.102L601.652 384.777C624.947 374.586 640 351.57 640 326.143V208.102C640 196.799 637.045 185.693 631.496 175.848ZM464 208C472.838 208 480 200.836 480 192V160C480 142.326 465.674 128 448 128H192C174.328 128 160 142.326 160 160V192C160 200.836 167.164 208 176 208C184.838 208 192 200.836 192 192V160H448V192C448 200.836 455.164 208 464 208ZM528 256C528 247.164 520.838 240 512 240H128C119.164 240 112 247.164 112 256S119.164 272 128 272H146.6L172.094 497.797C172.75 503.672 176.625 508.703 182.094 510.875C183.994 511.619 185.994 511.984 187.982 511.984C191.715 511.984 195.408 510.695 198.344 508.188L253.455 461.385L309.75 508.297C312.719 510.766 316.375 512 320 512S327.281 510.766 330.25 508.297L386.545 461.385L441.656 508.187C444.594 510.688 448.281 512 452 512C453.999 512 456 511.625 457.906 510.875C463.375 508.703 467.25 503.672 467.906 497.797L493.4 272H512C520.838 272 528 264.836 528 256ZM439.479 464.355L407.26 436.992C401.289 431.922 393.918 429.385 386.545 429.385C379.271 429.385 371.996 431.854 366.059 436.801L320 475.184L273.941 436.801C268.004 431.854 260.73 429.385 253.455 429.385C246.084 429.385 238.711 431.924 232.742 436.992L200.521 464.355L178.803 272H461.197L439.479 464.355ZM240 344C253.256 344 264 333.254 264 320C264 306.744 253.256 296 240 296C226.746 296 216 306.744 216 320C216 333.254 226.746 344 240 344ZM256 384C256 397.254 266.746 408 280 408C293.256 408 304 397.254 304 384C304 370.744 293.256 360 280 360C266.746 360 256 370.744 256 384ZM336 384C336 397.254 346.746 408 360 408C373.256 408 384 397.254 384 384C384 370.744 373.256 360 360 360C346.746 360 336 370.744 336 384ZM400 344C413.256 344 424 333.254 424 320C424 306.744 413.256 296 400 296C386.746 296 376 306.744 376 320C376 333.254 386.746 344 400 344ZM320 344C333.256 344 344 333.254 344 320C344 306.744 333.256 296 320 296C306.746 296 296 306.744 296 320C296 333.254 306.746 344 320 344Z"/></svg>
